!!!ONB: MCCC : ICS0249_00 : Extracted Monophonic Melody
!!!COM: Schubert, Franz
!!!OTL: Valse langoureuse, Op. 120
!!!SCT: Op.120
!!!ODT: 1903///
**kern
*staff1
*clefG2
*k[f#c#g#d#]
*E:
*M3/8
8ff#
=2
8ee
8gg#
8dd#
=3
8cc#
8ee
8b
=4
8a
8cc#
8g#
=5
8f#
8r
16f#
16g#
=6
8a
8r
16a
16g#
=7
8f#
8r
16f#
16g#
=8
8a
8r
16a
16g#
=9
8b
8r
8ff#
=10
8ee
8gg#
8dd#
=11
8cc#
8ee
8b
=12
8a
8cc#
8g#
=13
8f#
8r
16f#
16g#
=14
8a
8r
16a
16g#
=15
8f#
8r
16f#
16g#
=16
8a
8r
16a
16g#
=17
8b
8r
8aa
=18
8gg#
8bb
8ff#
=19
8ee
8gg#
8dd#
=20
8cc#
8ee
8b
=21
8a
8r
16a
16cc#
=22
8ee
8r
16ee
16cc#
=23
8a
8r
16a
16cc#
=24
8ee
8r
16ee
16cc#
=25
8a
8r
8aa
=26
8gg#
8bb
8ff#
=27
8ee
8gg#
8dd#
=28
8cc#
8ee
8b
=29
8a
8r
16a
16cc#
=30
8ee
8r
16ee
16cc#
=31
8a
8r
16a
16cc#
=32
8ee
8r
16ee
16cc#
=33
8dd#
8r
8d#
=34
8e
8d
8d#
=35
8b
16r
16cc#
8b
=36
8a#
16r
16b
8a#
=37
4g#
8gg#
=38
4ff#
8f#
=39
4a
8b
=40
8cc#
8dd#
8ee
=41
4ee
8dd#
=42
8ee
8cc#
8dd#
=43
8bb
16r
16ccc#
8bb
=44
8aa#
16r
16bb
8aa#
=45
4gg#
8gg
=46
4ff#
8f#
=47
8a
8cc#
8ee
=48
8dd#
8a#
8b
=49
8a#
8g#
8r
=50
8r
16dd#
16ee
16dd
16dd#
=51
8bb
16r
16ccc#
8bb
=52
8aa#
16r
16bb
8aa#
=53
4gg#
8ggg#
=54
4fff#
8ff#
=55
4aa
8bb
=56
8ccc#
8ddd#
8eee
=57
4eee
8ddd#
=58
16ddd#
16ccc##
16ddd#
16eee
16ddd
16ddd#
=59
8bbb
16r
16cccc#
8bbb
=60
8aaa#
16r
16bbb
8aaa#
=61
4ggg#
8ggg
=62
4fff#
16dd#
16ff#
=63
16cc#
16aa
16ee
16ccc#
16gg#
16eee
=64
16gg
16ddd#
16cc#
16aa#
16dd#
16bb
=65
16cc#
16aa#
16b
16gg#
8r
=66
8r
8g
8g#
=67
4b
8b#
=68
4e
8e#
=69
4a#
8b
=70
4d#
8e
=71
4g#
8a
=72
4c#
8d
=73
4f#
8g
=74
4ee#
8ee
=75
4ee
8a
=76
4ee
8dd
=77
4dd
8g#
=78
4dd
8b#
=79
4b#
8b
=80
4dd
8cc#
=81
4ee
8dd
=82
4gg#
8gg
=83
4bb
8bb#
=84
4ee
8ee#
=85
4aa#
8bb
=86
4dd#
8ee
=87
4gg#
8aa
=88
4cc#
8dd
=89
4ff#
8gg
=90
4eee#
8eee
=91
4eee
8aa
=92
4eee
8ddd
=93
4ddd
8ee#
=94
4ddd
8bb#
=95
4bb#
8bb
=96
4bb
8aa
=97
4aa
8gg
=98
4.r
=99
8r
8e
8r
=100
4.r
=101
8r
8ee
8r
=102
4.r
=103
8r
8e#
8r
=104
4.r
=105
8r
8e#
8r
=106
4.r
=107
4.r
=108
4.ee
=109
4.b
=110
4.b#
=111
4.cc#
=112
4.dd
=113
4.e#
=114
4g
8a
=115
4g
8r
=116
4.ee
=117
4.b
=118
4.b#
=119
4.cc#
=120
4.dd
=121
4.e#
=122
4a#
8b
=123
4b
8r
=124
4.dd#
=125
4.a#
=126
4.b
=127
4.b#
=128
4.cc#
=129
4.e
=130
4f#
8g#
=131
4f#
8r
=132
4.dd#
=133
4.a#
=134
4.b
=135
4.b#
=136
4.cc#
=137
4.d#
=138
4f#
8e
=139
8d#
8r
8r
=140
4.r
=141
8r
24g#
24d#
24g#
8dd#
=142
8r
24g
24c#
24g
8dd#
=143
8r
24ee
24b
24ee
8bb
=144
8r
24bb
24dd#
24bb
8ddd#
=145
8r
24ee
24cc#
24ee
8ccc#
=146
8r
24cc#
24a
24cc#
8aa
=147
8r
24cc#
24g
24cc#
8gg
=148
4.r
=149
8r
24gg#
24dd#
24gg#
8ddd#
=150
8r
24gg
24cc#
24gg
8ddd#
=151
8r
24eee
24bb
24eee
8bbb
=152
8r
24bbb
24ddd#
24bbb
8dddd#
=153
8r
24eee
24aa
24eee
8cccc#
=154
8r
24ccc#
24gg
24ccc#
8ggg
=155
8r
24bb
24gg#
24bb
8ggg#
=156
4.r
=157
16r
16a
16r
16cc#
16r
16ee
=158
16r
16aa#
16r
16a#
16r
16b
=159
16r
16g#
16r
16b
16r
16dd
=160
16r
16gg#
16r
16g#
16r
16a
=161
16r
16f#
16r
16a
16r
16b#
=162
16r
16ff#
16r
16f#
16r
16g#
=163
16e
16f#
16g#
16a
16b
16cc#
=164
16ee
16dd#
16cc#
16b
16a
16g#
=165
16r
16f#
16r
16a
16r
16cc#
=166
16r
16ff#
16r
16f#
16r
16g#
=167
16e
16f#
16g#
16a
16b
16cc#
=168
16dd#
16ee
16ff#
16gg#
16aa
16bb
=169
16eee
16ddd#
16ccc#
16bb
16aa
16gg#
=170
16ff#
16ee
16dd#
16cc#
16b
16g#
=171
16e
16f#
16g#
16a
16b
16cc#
=172
16dd#
16ee
16ff#
16gg#
16aa
16bb
=173
16eee
16ddd#
16ccc#
16bb
16aa
16gg#
=174
16ff#
16ee
16dd#
16cc#
16b
16g#
=175
16e
16f#
16g#
16a
16b
16cc#
=176
16dd#
16ee
16ff#
16gg#
16aa
16bb
=177
16eee
16ddd#
16ccc#
16bb
16aa
16gg#
=178
16aa
16bb
16ccc#
16ddd#
16eee
16fff#
=179
16ggg#
16aaa
16bbb
16cccc#
16eeee
16dddd#
=180
16cccc#
16bbb
16aaa
16ggg#
16bbb
16aaa
=181
16ggg#
16fff#
16eee
16ddd#
16ggg#
16fff#
=182
16eee
16ddd#
16ccc#
16bb
16eee
16ddd#
=183
16ccc#
16bb
16aa
16gg#
16bb
16aa
=184
16gg#
16ff#
16ee
16dd#
16gg#
16ff#
=185
16ee
16dd#
16gg#
16ff#
16ee
16dd#
=186
16gg#
16ff#
16ee
16dd#
16gg#
16ff#
=187
16ee
16dd#
16gg#
16ff#
16ee
16dd#
=188
16gg#
16ff#
16ee
16dd#
8gg#
=189
*M4/8
4.gg#
8ff#
=190
*M3/8
8ee
8gg#
8dd#
=191
8cc#
8ee
8b
=192
8a
8cc#
8g#
=193
8f#
8r
16f#
16g#
=194
8a
8r
16a
16g#
=195
8f#
8r
16f#
16g#
=196
8a
8r
16a
16g#
=197
8b
8r
8ff#[
=198
16ff#]
16ee
16dd#
16ee
16gg#
16dd#
=199
16dd#
16cc#
16b
16cc#
16ee
16b
=200
16b
16a
16g#
16a
16cc#
16g#
=201
8f#
8r
16f#
16g#
=202
8a
8r
16a
16g#
=203
8f#
8r
16f#
16g#
=204
8a
8r
16a
16g#
=205
8b
8r
8aa
=206
8gg#
8bb
8ff#
=207
8ee
8gg#
8dd#
=208
8cc#
8ee
8b
=209
8a
8r
16a
16cc#
=210
8ee
8r
16ee
16cc#
=211
8a
8r
16a
16cc#
=212
8ee
8r
16ee
16cc#
=213
8a
8r
8aa[
=214
16aa]
16gg#
16ff#
16gg#
16ccc#
16ff#
=215
16ff#
16ee
16dd#
16ee
16aa
16dd#
=216
16dd#
16cc#
16b
16cc#
16ee
16b
=217
8a
8r
16a
16ee
=218
8aa
8r
16aa
16ff#
=219
8ee
8r
16a
16dd#
=220
8aa
8r
16aa
16eee
=221
8aaa
8r
8B
=222
8c#
8A#
8B
=223
8g#
16r
16a
8g#
=224
8f#
16r
16g#
8f#
=225
4e
8ee
=226
4dd#
8d#
=227
4f#
8g#
=228
8a
8b
8cc#
=229
4cc#
8b
=230
8cc#
8a
8b
=231
8gg#
16r
16aa
8gg#
=232
8ff#
16r
16gg#
8ff#
=233
4ee
8eee
=234
4ddd#
8dd#
=235
8ff#
8aa
8ccc#
=236
8bb
8ff#
8gg#
=237
8ff#
8ee
16g#
16a
=238
16a#
16b
16cc#
16dd#
16ee
16ff#
=239
8gg#
16r
16aa
8gg#
=240
8ff#
16r
16gg#
8ff#
=241
4ee
8eee
=242
4ddd#
8dd#
=243
4ff#
8gg#
=244
8aa
8bb
8bb#
=245
4bb#
8bb
=246
8ccc#
8aa#
8bb
=247
8ggg#
16r
16aaa
8ggg#
=248
8fff#
16r
16ggg#
8fff#
=249
8eee
16r
16fff#
8eee
=250
8ddd#
16r
16eee
8ddd#
=251
8ccc#
16dd
16bb
16cc#
16aa
=252
16b
16gg#
16b#
16ff#
16cc#
16ee
=253
4gg#
8r
=254
4.gg#
=255
4.dd#
=256
4.ee
=257
4.ee#
=258
4.ff#
=259
4.a
=260
4b
8cc#
=261
4bb
8r
=262
4.gg#
=263
4.dd#
=264
4.ee
=265
4.ee#
=266
4.ff#
=267
4.g#
=268
4b
8a
=269
8gg#
8r
8r
=270
4.r
=271
16r
16G#
16c#
16g#
16c#
16G#
=272
16r
16G#
16f#
16g#
16f#
16G#
=273
16r
16e
16g#
16ee
16a
16e
=274
16r
16g#
16ee
16gg#
16dd#
16g#
=275
8ee
16r
16ff#
8ee
=276
8dd#
16r
16ee
8dd#
=277
4cc#
8ccc#
=278
4bb
8ee
=279
16a
16ff#
16cc#
16aa
16ee
16ccc#
=280
16dd#
16bb
16a
16ff#
16b
16gg#
=281
8ee
8r
8r
=282
8r
8r
16g#
16ee#
=283
8ff#
8aa[
16aa]
16ccc#
=284
8bb
8bb
16ff#
16gg#
=285
8ee
16ccc#
16bb
16ff#
16gg#
=286
16ee
16gg#
16ccc#
16bb
16ff#
16gg#
=287
16ee
16gg#
16ccc#
16bb
16ff#
16gg#
=288
16ee
16gg#
16ccc#
16bb
16ff#
16gg#
=289
16ee
16ff#
16gg#
16aa
16bb
16ccc#
=290
16ddd
16ddd#
16eee
16eee#
16fff#
16ggg#
=291
16aaa
16fff#
16ccc#
16aa
16ff#
16cc#
=292
16dd#
16ee
16ff#
16dd#
16b
16a
=293
16g#
16a
16cc#
16b
16f#
16g#
=294
16e
16g#
16cc#
16b
16f#
16g#
=295
16e
16g#
16cc#
16b
16f#
16g#
=296
16e
16g#
16cc#
16b
16f#
16g#
=297
16e
16f#
16g#
16a
16b
16cc#
=298
16dd
16dd#
16ee
16ee#
16ff#
16gg#
=299
16aa
16ff#
16cc#
16a
16f#
16c#
=300
16d#
16e
16f#
16d#
16B
16A
=301
16G#
16F#
16G#
16A
16B
16c#
=302
16d#
16e
16f#
16g#
16a
16b
=303
16g#
16a
16b
16cc#
16dd#
16ee
=304
16ff#
16gg#
16aa
16bb
16gg#
16aa
=305
16bb
16ccc#
16ddd#
16eee
16fff#
16ggg#
=306
16aaa
16bbb
16ggg#
16aaa
16bbb
16cccc#
=307
16dddd#
16eeee
16dddd#
16cccc#
16bbb
16aaa
=308
16ggg#
16fff#
16eee
16ddd#
16ccc#
16bb
=309
16aa
16gg#
16ff#
16ee
16dd#
16cc#
=310
16b
16a
16g#
16f#
16e
16d#
=311
16c#
16e
16g#
16cc#
16ee
16gg#
=312
16ccc#
16gg#
16ccc#
16eee
16ggg#
16cccc#
=313
8eeee
8r
8r
=314
8e
8r
8r
=315
8g#
8r
8r
=316
8f#
8r
8r
=317
8e
8r
8r
=318
8eee
8r
8r
==
*-
